tools/download-figma-icons/icons/solid/sailboat.svg

<svg width="24" height="24" viewBox="0 0 24 24" fill="none" xmlns="http://www.w3.org/2000/svg">
<path fill-rule="evenodd" clip-rule="evenodd" d="M11.2498 3.80199C13.9422 9.75687 11.9998 12.2318 11.2498 12.8993V3.80199ZM23.2495 20.2566C21.9596 20.2566 21.2921 21.0599 20.7971 21.6449C20.4671 22.0416 20.2271 22.2966 19.9196 22.4166L21.6896 18.2992C21.7871 18.0674 21.7646 17.8042 21.6221 17.5949C21.4871 17.3842 21.2471 17.2567 20.9996 17.2567H11.2498V15.0067H19.4996C19.9121 15.0067 20.2496 14.6767 20.2496 14.2642C20.2496 6.20191 12.6297 1.01877 10.9723 0.171285C10.7398 -0.0237107 10.3948 -0.06046 10.1173 0.103787C9.9673 0.187035 9.8698 0.321282 9.8098 0.472029V0.478779C9.7948 0.508778 9.7798 0.538778 9.7723 0.562027L3.80992 13.9568C3.71242 14.19 3.72742 14.4592 3.86992 14.6692C4.00492 14.88 4.24491 15.0067 4.49991 15.0067H9.7498V17.2567H2.99994C2.73744 17.2567 2.49745 17.3917 2.36245 17.6092C2.22745 17.8267 2.21245 18.0974 2.32495 18.3292L4.32741 22.4766C3.88492 22.4166 3.61493 22.1473 3.20243 21.6449C2.70744 21.0599 2.03996 20.2566 0.749985 20.2566C0.337493 20.2566 0 20.5874 0 20.9999C0 21.4191 0.337493 21.7498 0.749985 21.7498C1.31247 21.7498 1.58247 22.0416 2.04746 22.6041C2.53495 23.1966 3.20993 23.9998 4.49991 23.9998C5.78238 23.9998 6.45737 23.1966 6.94486 22.6041C7.41735 22.0416 7.68734 21.7498 8.24983 21.7498C8.80482 21.7498 9.07482 22.0416 9.54731 22.6041C10.0348 23.1966 10.7098 23.9998 11.9998 23.9998C13.2822 23.9998 13.9572 23.1966 14.4447 22.6041C14.9172 22.0416 15.1872 21.7498 15.7497 21.7498C16.3047 21.7498 16.5747 22.0416 17.0472 22.6041C17.5346 23.1966 18.2096 23.9998 19.4996 23.9998C20.7896 23.9998 21.4571 23.1966 21.9521 22.6041C22.417 22.0416 22.687 21.7498 23.2495 21.7498C23.662 21.7498 23.9995 21.4191 23.9995 20.9999C23.9995 20.5874 23.662 20.2566 23.2495 20.2566Z" fill="black"/>
</svg>

<svg xmlns="http://www.w3.org/2000/svg" width="24" height="24" fill="none" viewBox="0 0 24 24"><path fill="currentColor" fill-rule="evenodd" d="M11.25 3.802c2.692 5.955.75 8.43 0 9.097zm12 16.455c-1.29 0-1.958.803-2.453 1.388-.33.397-.57.652-.877.772l1.77-4.118a.74.74 0 0 0-.068-.704.75.75 0 0 0-.622-.338h-9.75v-2.25h8.25c.412 0 .75-.33.75-.743 0-8.062-7.62-13.245-9.278-14.093a.75.75 0 0 0-.855-.067.7.7 0 0 0-.307.368v.007a1 1 0 0 0-.038.083L3.81 13.957a.748.748 0 0 0 .69 1.05h5.25v2.25H3a.75.75 0 0 0-.675 1.072l2.002 4.148c-.442-.06-.712-.33-1.125-.832-.495-.585-1.162-1.388-2.452-1.388a.746.746 0 1 0 0 1.493c.562 0 .832.292 1.297.854C2.535 23.197 3.21 24 4.5 24c1.282 0 1.957-.803 2.445-1.396.472-.562.742-.854 1.305-.854.555 0 .825.292 1.297.854C10.035 23.197 10.71 24 12 24c1.282 0 1.957-.803 2.445-1.396.472-.562.742-.854 1.305-.854.555 0 .825.292 1.297.854C17.535 23.197 18.21 24 19.5 24s1.957-.803 2.452-1.396c.465-.562.735-.854 1.297-.854a.748.748 0 1 0 0-1.493" clip-rule="evenodd"/></svg>
